packages/core/src/svgs/tokens/mono/GSWIFT.svg

<svg width="24" height="24" viewBox="0 0 24 24" fill="none" xmlns="http://www.w3.org/2000/svg">
<path d="M2 17.5L8.24998 10.78L9.49998 11.3901L7.62499 13.5301L11.065 12L12.625 12.915L2 17.5Z" fill="white"/>
<path d="M22 17.5L16.3749 11.695L19.5 9.99995L15.7499 6.5H8.24998L4.5 9.99995L22 17.5ZM8.87499 7.50001H15.125L17.315 9.555L15.125 10.47L13.9999 9.5H9.49998L12.25 10.5H13.5L16.3749 13.53L6.685 9.555L8.87499 7.50001Z" fill="white"/>
<path d="M16.845 11.4653L15.7051 10.2302L15.125 10.4702L14.775 10.1353L16.375 11.6952L16.845 11.4653Z" fill="white"/>
</svg>

<svg xmlns="http://www.w3.org/2000/svg" width="24" height="24" fill="none" viewBox="0 0 24 24">
    <path fill="#fff" d="m2 17.5 6.25-6.72 1.25.61-1.875 2.14 3.44-1.53 1.56.915z"/>
    <path fill="#fff" d="m22 17.5-5.625-5.805L19.5 10l-3.75-3.5h-7.5L4.5 10zM8.875 7.5h6.25l2.19 2.055-2.19.915L14 9.5H9.5l2.75 1h1.25l2.875 3.03-9.69-3.975z"/>
    <path fill="#fff" d="m16.845 11.465-1.14-1.235-.58.24-.35-.335 1.6 1.56z"/>
</svg>
